public/svgs/regular/high-definition.svg

<svg xmlns="http://www.w3.org/2000/svg" viewBox="0 0 576 512"><!-- Font Awesome Pro 6.0.0-alpha2 by @fontawesome - https://fontawesome.com License - https://fontawesome.com/license (Commercial License) --><path d="M512 32H64C28.654 32 0 60.652 0 96V416C0 451.346 28.654 480 64 480H512C547.346 480 576 451.346 576 416V96C576 60.652 547.346 32 512 32ZM528 416C528 424.822 520.822 432 512 432H64C55.178 432 48 424.822 48 416V96C48 87.178 55.178 80 64 80H512C520.822 80 528 87.178 528 96V416ZM248 160C234.75 160 224 170.75 224 184V232H160V184C160 170.75 149.25 160 136 160S112 170.75 112 184V328C112 341.25 122.75 352 136 352S160 341.25 160 328V280H224V328C224 341.25 234.75 352 248 352S272 341.25 272 328V184C272 170.75 261.25 160 248 160ZM384 160H328C314.75 160 304 170.75 304 184V328C304 341.25 314.75 352 328 352H384C436.938 352 480 308.938 480 256S436.938 160 384 160ZM384 304H352V208H384C410.469 208 432 229.531 432 256S410.469 304 384 304Z"/></svg>

<svg xmlns="http://www.w3.org/2000/svg" viewBox="0 0 576 512"><!--! Font Awesome Pro 6.5.1 by @fontawesome - https://fontawesome.com License - https://fontawesome.com/license (Commercial License) Copyright 2023 Fonticons, Inc. --><path d="M512 80c8.8 0 16 7.2 16 16V416c0 8.8-7.2 16-16 16H64c-8.8 0-16-7.2-16-16V96c0-8.8 7.2-16 16-16H512zM64 32C28.7 32 0 60.7 0 96V416c0 35.3 28.7 64 64 64H512c35.3 0 64-28.7 64-64V96c0-35.3-28.7-64-64-64H64zM304 184V328c0 13.3 10.7 24 24 24h56c53 0 96-43 96-96s-43-96-96-96H328c-13.3 0-24 10.7-24 24zm80 24c26.5 0 48 21.5 48 48s-21.5 48-48 48H352V208h32zM160 184c0-13.3-10.7-24-24-24s-24 10.7-24 24v72 72c0 13.3 10.7 24 24 24s24-10.7 24-24V280h64v48c0 13.3 10.7 24 24 24s24-10.7 24-24V256 184c0-13.3-10.7-24-24-24s-24 10.7-24 24v48H160V184z"/></svg>
